images_elementary_svg/cmd/ru/sc_bold.svg

<svg viewBox="0 0 16 16" xmlns="http://www.w3.org/2000/svg" xmlns:xlink="http://www.w3.org/1999/xlink"><radialGradient id="a" cx="8" cy="-2.589108" gradientTransform="matrix(-1.08925 .00000001 -.00000002 -1.7198682 16.714 -4.952924)" gradientUnits="userSpaceOnUse" r="8.721599"><stop offset="0" stop-color="#737373"/><stop offset=".262" stop-color="#636363"/><stop offset=".705" stop-color="#4b4b4b"/><stop offset="1" stop-color="#3f3f3f"/></radialGradient>

/&amp;amp;gt;<path d="m4.038159 7.7413037-3.53782083-6.2413037h2.83687383l3.3777464 6.2946619v-6.2962592h2.5700832v6.2962592l3.3691914-6.2946619h2.845767l-3.538159 6.2413037 3.618807 6.7586963h-2.94359l-3.3520164-6.5897288v6.5897288h-2.5700832v-6.5897288l-3.2624753 6.5897288h-2.9524831z" fill="url(#a)" stroke="#000" stroke-linecap="round" stroke-linejoin="round" stroke-opacity=".6"/><path d="m.5011482 1.4996442.9609375 1.5h1.875l2.9578362 5.6058246.4199219-.6953126v-.1152343l-3.3777581-6.2952777zm6.2136956-.0016v1.5h2.5703124v-1.5zm5.9395152.00159-3.3692028 6.2952777v.1152343l.421875.6953126 2.9473278-5.6058246h1.882813l.96289-1.5zm-9.091859 6.9984127-3.06160485 6.0019531h.94531245l2.5928549-5.2578125zm8.875.0019531-.476562.7421875 2.673503 5.2578125h.945312z" fill="#fff" opacity=".2"/></svg>

<?xml version="1.0" encoding="UTF-8" standalone="no"?>
<svg
   xmlns:dc="http://purl.org/dc/elements/1.1/"
   xmlns:cc="http://creativecommons.org/ns#"
   xmlns:rdf="http://www.w3.org/1999/02/22-rdf-syntax-ns#"
   xmlns:svg="http://www.w3.org/2000/svg"
   xmlns="http://www.w3.org/2000/svg"
   xmlns:xlink="http://www.w3.org/1999/xlink"
   xmlns:sodipodi="http://sodipodi.sourceforge.net/DTD/sodipodi-0.dtd"
   xmlns:inkscape="http://www.inkscape.org/namespaces/inkscape"
   viewBox="0 0 16 16"
   version="1.1"
   id="svg13"
   sodipodi:docname="sc_bold.svg"
   inkscape:version="0.92.4 (unknown)"
   inkscape:export-filename="/home/rizmut/Dokumen/Rizmut/Github/libreoffice-style-elementary/images_elementary/cmd/ru/sc_bold.png"
   inkscape:export-xdpi="96"
   inkscape:export-ydpi="96"><metadata
   id="metadata19">
  <rdf:RDF>
    <cc:Work
       rdf:about="">
      <dc:format>image/svg+xml</dc:format>
      <dc:type
         rdf:resource="http://purl.org/dc/dcmitype/StillImage" />
      <dc:title></dc:title>
    </cc:Work>
  </rdf:RDF>
</metadata>
<defs
   id="defs17">
  <radialGradient
     inkscape:collect="always"
     xlink:href="#a"
     id="radialGradient831"
     cx="8"
     cy="-2.5891078"
     fx="8"
     fy="-2.5891078"
     r="8.7215986"
     gradientTransform="matrix(-1.08925,1.4378555e-8,-2.2702978e-8,-1.7198682,16.714,-4.9529242)"
     gradientUnits="userSpaceOnUse" />
</defs>
<sodipodi:namedview
   pagecolor="#ffffff"
   bordercolor="#666666"
   borderopacity="1"
   objecttolerance="10"
   gridtolerance="10"
   guidetolerance="10"
   inkscape:pageopacity="0"
   inkscape:pageshadow="2"
   inkscape:window-width="1366"
   inkscape:window-height="714"
   id="namedview15"
   showgrid="true"
   inkscape:zoom="16"
   inkscape:cx="-2.1476246"
   inkscape:cy="8.3681844"
   inkscape:window-x="0"
   inkscape:window-y="28"
   inkscape:window-maximized="1"
   inkscape:current-layer="svg13">
  <inkscape:grid
     type="xygrid"
     id="grid826" />
</sodipodi:namedview>
<radialGradient
   id="a"
   cx="11.375"
   cy="1.125"
   gradientTransform="matrix(-2.81612 0 0 -3.9403 43.408 3.466)"
   gradientUnits="userSpaceOnUse"
   r="5.154">
  <stop
     offset="0"
     stop-color="#737373"
     id="stop2" />
  <stop
     offset=".262"
     stop-color="#636363"
     id="stop4" />
  <stop
     offset=".705"
     stop-color="#4b4b4b"
     id="stop6" />
  <stop
     offset="1"
     stop-color="#3f3f3f"
     id="stop8" />
</radialGradient>

/&amp;gt;<g
   aria-label="Ж"
   style="font-style:normal;font-weight:normal;font-size:18.21290779px;line-height:1.25;font-family:sans-serif;letter-spacing:0px;word-spacing:0px;opacity:1;fill:url(#radialGradient831);fill-opacity:1;stroke:#000000;stroke-width:1;stroke-linecap:round;stroke-linejoin:round;stroke-miterlimit:4;stroke-dasharray:none;stroke-opacity:0.6"
   id="text844">
  <path
     d="M 4.038159,7.7413037 0.50033817,1.5 H 3.337212 L 6.7149584,7.7946619 V 1.4984027 H 9.2850416 V 7.7946619 L 12.654233,1.5 H 15.5 L 11.961841,7.7413037 15.580648,14.5 h -2.94359 L 9.2850416,7.9102712 V 14.5 H 6.7149584 V 7.9102712 L 3.4524831,14.5 H 0.5 Z"
     style="font-style:normal;font-variant:normal;font-weight:bold;font-stretch:normal;font-family:'Droid Sans';-inkscape-font-specification:'Droid Sans Bold';fill:url(#radialGradient831);fill-opacity:1;stroke:#000000;stroke-width:1;stroke-linecap:round;stroke-linejoin:round;stroke-miterlimit:4;stroke-dasharray:none;stroke-opacity:0.6"
     id="path861"
     inkscape:connector-curvature="0"
     sodipodi:nodetypes="ccccccccccccccccccc" />
</g>
<path
   style="font-style:normal;font-weight:normal;font-size:18.21290779px;line-height:1.25;font-family:sans-serif;letter-spacing:0px;word-spacing:0px;opacity:0.2;fill:#ffffff;fill-opacity:1;stroke:none;stroke-width:1;stroke-linecap:round;stroke-linejoin:round;stroke-miterlimit:4;stroke-dasharray:none;stroke-opacity:0.6"
   d="m 0.5011482,1.4996442 0.9609375,1.5 h 1.875 L 6.2949219,8.6054688 6.7148438,7.9101562 V 7.7949219 L 3.3370857,1.4996442 Z m 6.2136956,-0.0016 v 1.5 h 2.5703124 v -1.5 z m 5.9395152,0.00159 -3.3692028,6.2952777 v 0.1152343 l 0.421875,0.6953126 2.9473278,-5.6058246 h 1.882813 l 0.96289,-1.5 z M 3.5625,8.4980469 0.50089515,14.5 H 1.4462076 L 4.0390625,9.2421875 Z M 12.4375,8.5 11.960938,9.2421875 14.634441,14.5 h 0.945312 z"
   id="text835"
   inkscape:connector-curvature="0"
   sodipodi:nodetypes="ccccccccccccccccccccccccccccccc" />
</svg>
